X:4
T:Duke Of York's March
S:John Moore's Book 3
Z:Transcribed by Steve Mansfield 05/2021
%%VWML: Moore1-4495-p3-0
F:https://www.vwml.org/record/Moore3/4495/p3
N:Incomplete in Mss
M:C
L:1/8
K:D
V:1 "Primo"
D2D>D F2F>F | AFAF D2A>A | (dA)(dA) dAFD | A2A>A A2z2 | 
(a3f) d2d2 | e2e>g f2za | a3f fdff | e2e>e e2z2 :|
A2A>A A(efg) | A2A>A A(dfa) | (ge)ee (fd)dd | (ba)gf Tf2-f2 | 
V:2 "Secondo"
D2D>D F2F>F | AFAF D2A>A | dAdA dAFD | A2A>A A2z2 | 
(f3d) F2F2 | A2A2 d2zf | f3d dfed | A2A>A A2z2 :| 
A2A>A A2z2 | D2D>D D2z2 | (Ac)cc (df)ff | (gf)ed d2-d2 |

